public/stylesheets/font/svgs/brands/sketch.svg

<svg viewBox="0 0 494.4 512" xmlns="http://www.w3.org/2000/svg"><path d="m18.5 162.2-18.5 24.9h90.5l6.9-130.7zm368.8-116.5-128.6-13.7 135.7 147.2zm-284.1 172.6-11.2-22h-91.1l224.9 261.7zm2-31.2h284l-81.5-88.5-60.4-65.6zm297.3 9.1-133.9 261.8 224.8-261.7h-90.9zm3.9-127.2-9.4-12.6.9 17.3 6.1 113.4h90.3zm-301.9 24.5-4.6 85.6 135.8-147.1-128.6 13.7zm287.7 102.7h-290l42.4 82.9 102.7 200.9z"/></svg>

<svg xmlns="http://www.w3.org/2000/svg" viewBox="0 0 494.4 512"><path d="M18.5 162.2L0 187.1h90.5l6.9-130.7-78.9 105.8zM387.3 45.7L258.7 32l135.7 147.2-7.1-133.5zM103.2 218.3l-11.2-22H.9L225.8 458 103.2 218.3zm2-31.2h284l-81.5-88.5L247.3 33 105.2 187.1zm297.3 9.1L268.6 458l224.8-261.7h-90.9zM406.4 69L397 56.4l.9 17.3 6.1 113.4h90.3L406.4 69zM104.5 93.5l-4.6 85.6L235.7 32 107.1 45.7l-2.6 47.8zm287.7 102.7h-290l42.4 82.9L247.3 480l144.9-283.8z"/></svg>
